X: 121
M:2/4
L:1/16
K:D
vFG|AFDF AFdB|AdFA fedc|BdGB gefd|ecdB A2(FG)|
|:ude|fdcd BdAd|FAde fdcd|"0"eAfA gAfA|ecdB A2(de)|
fdcd BdAd|FAde fdcd|"0"eAfA gAfA|ecAc d2:|


